X:50
T:Sweet is the Lass that Dwells among the Heather
R:Air
C:Trad Old English
S:D. Greenberg's CD "Bach Meets Cape Breton"
M:4/4
L:1/8
Q:200
K:G
P: A Part
|: B,3 D D3 E|DB, DE G3 B|dB AG AG AB|G2 E2 E4|
G2 D(G G)(D D)E|DB,A,G, DE GB|dB AG AG AB|1G2 G2 G4:|2 G2 G2 G3 (3G/2A/2B/2 ||
P:B Part
c3 d fe dc|B3 c ed cB|AG AB cB AG|A2 E2 E2 AB|
c3 d fe dc|B3 c ed cB|dB AG AG AB|G2 G2 G2 AB|
c z D  z fe dc|B z B, z ed cB|AG AB cB AG|A2 E2 E3 A|
B3 d c3 e |d2 ef g2 B2|dB AG AG AB|G2 G2 G4||
